X:110
T:Story of My Life
M:C|
C:© Paul Gitlitz 2006
R:Reel
B:Anna's Smile
K:Em
GF| "Em"E2B,2E2B,2|EDEF GFGA|"G"B2G2B4|BABc BAGF|!
"Em"E2B,2E3D|EDEF GFGA|"G"BAGB "D"AGFA|1"Em"G2E2E2:|2"Em"G2E2E2Bc|!
|:"G"d2de dcB2|"C"cBcd cBA2|"G"BABc BAGB|"A"AGFE "D"D2Bc|!
"G"d2de dcB2|"C"cBcd cBAc|"G"BAGB "D"AGFA|"Em"G2E2E4:|]
